X: 305856
M: 6/8
L: 1/8
K: A
c/d/ |\
e3 a3 | f3 a3 | ecA AGA | cBG E2 c/d/ |\
ece aga | fcf aga | eac edB | cAA A2 H|]
dBG Efe | e2d cag | fed cBA | GBG EGB |\
dBG Efe | e2d cde | fga EFG | B3 "^D.C."A2 |]


